# y_2x2
CONST robtarget p_23_00:= [[250.5884, 386.6131, 157.539], [0.007641368, 0.9998968, 0.00906827, 0.008116186], [-1.0, 1.0, -2.0, 4.0], [131.3014, 9E+09, 9E+09, 9E+09, 9E+09, 9E+09]];
CONST robtarget p_22_00:= [[252.611, 356.8537, 157.4619], [0.0203973, 0.999662, 0.01601405, 0.001812111], [-1.0, 1.0, -2.0, 4.0], [132.9353, 9E+09, 9E+09, 9E+09, 9E+09, 9E+09]];
CONST robtarget p_21_00:= [[250.6552, 323.8467, 156.1599], [0.005438828, 0.9998659, -0.01242071, 0.009187329], [-1.0, 2.0, -2.0, 4.0], [134.4719, 9E+09, 9E+09, 9E+09, 9E+09, 9E+09]];
CONST robtarget p_20_00:= [[255.726, 292.7981, 158.872], [0.01296401, 0.999794, 0.01119613, -0.01088524], [-1.0, 2.0, -2.0, 4.0], [135.4245, 9E+09, 9E+09, 9E+09, 9E+09, 9E+09]];
# y_2x4
CONST robtarget p_23_02:= [[313.4546, 387.709, 158.0812], [0.01115683, 0.9998221, 0.00841868, 0.01266532], [-1.0, 1.0, -2.0, 4.0], [155.8848, 9E+09, 9E+09, 9E+09, 9E+09, 9E+09]];
CONST robtarget p_22_02:= [[314.7883, 356.2853, 156.5104], [0.01171569, 0.9998745, 0.007797121, 0.007279702], [-1.0, 1.0, -2.0, 4.0], [136.4764, 9E+09, 9E+09, 9E+09, 9E+09, 9E+09]];
CONST robtarget p_21_02:= [[315.0127, 322.6738, 160.7855], [0.007609247, 0.9999462, -0.00172045, 0.006834368], [-1.0, 1.0, -2.0, 4.0], [138.1449, 9E+09, 9E+09, 9E+09, 9E+09, 9E+09]];
CONST robtarget p_20_02:= [[316.7744, 296.0128, 157.996], [0.02469095, 0.9995538, 0.01679119, 0.0007912947], [-1.0, 1.0, -2.0, 4.0], [138.574, 9E+09, 9E+09, 9E+09, 9E+09, 9E+09]];
# y_2x4
CONST robtarget p_23_04:= [[383.6472, 388.3915, 156.9477], [0.01627432, 0.9992458, -0.0330709, -0.01221548], [-1.0, 1.0, -2.0, 4.0], [166.2875, 9E+09, 9E+09, 9E+09, 9E+09, 9E+09]];
CONST robtarget p_22_04:= [[383.0326, 356.4871, 157.8771], [0.01195958, 0.999755, 0.0148733, -0.01121321], [-1.0, 1.0, -2.0, 4.0], [167.0132, 9E+09, 9E+09, 9E+09, 9E+09, 9E+09]];
CONST robtarget p_21_04:= [[378.6643, 325.4656, 158.3447], [0.01085346, 0.9998817, -0.009242725, 0.00576634], [-1.0, 1.0, -2.0, 4.0], [167.7269, 9E+09, 9E+09, 9E+09, 9E+09, 9E+09]];
CONST robtarget p_20_04:= [[383.5973, 292.8886, 158.5558], [0.01191025, 0.9998347, -0.009765306, -0.009658614], [-1.0, 1.0, -2.0, 4.0], [167.3346, 9E+09, 9E+09, 9E+09, 9E+09, 9E+09]];
# b_2x2
CONST robtarget p_23_06:= [[446.1383, 386.948, 159.033], [0.004416184, 0.9995823, -0.02799294, -0.005672841], [-1.0, 1.0, -2.0, 4.0], [172.7844, 9E+09, 9E+09, 9E+09, 9E+09, 9E+09]];
CONST robtarget p_22_06:= [[448.153, 357.0794, 158.1385], [0.01923917, 0.9996697, 0.009440419, -0.01418276], [-1.0, 1.0, -2.0, 4.0], [172.9363, 9E+09, 9E+09, 9E+09, 9E+09, 9E+09]];
CONST robtarget p_21_06:= [[444.101, 327.6202, 157.9818], [0.02005589, 0.9996406, -0.01778396, 0.0004480968], [-1.0, 1.0, -2.0, 4.0], [173.7054, 9E+09, 9E+09, 9E+09, 9E+09, 9E+09]];
CONST robtarget p_20_06:= [[445.4217, 291.8724, 159.8389], [0.0102165, 0.9999058, -0.008357135, -0.003777151], [-1.0, 1.0, -2.0, 4.0], [173.4142, 9E+09, 9E+09, 9E+09, 9E+09, 9E+09]];
# b_2x4
CONST robtarget p_19_06:= [[441.2758, 264.5508, 156.9149], [0.02353106, 0.9990607, -0.03352678, 0.01414281], [-1.0, 1.0, -2.0, 4.0], [173.7027, 9E+09, 9E+09, 9E+09, 9E+09, 9E+09]];
CONST robtarget p_18_06:= [[442.5536, 231.9454, 156.1808], [0.02413991, 0.9994233, 0.0223853, 0.008324048], [-1.0, 1.0, -2.0, 4.0], [173.1149, 9E+09, 9E+09, 9E+09, 9E+09, 9E+09]];
CONST robtarget p_23_08:= [[515.3483, 390.0912, 160.3948], [0.02239942, 0.999244, -0.0184942, -0.02583957], [-1.0, 1.0, -2.0, 4.0], [158.1337, 9E+09, 9E+09, 9E+09, 9E+09, 9E+09]];
CONST robtarget p_22_08:= [[509.0847, 355.9407, 157.941], [0.00926762, 0.9999468, -0.003957743, -0.002176579], [-1.0, 1.0, -2.0, 4.0], [163.4553, 9E+09, 9E+09, 9E+09, 9E+09, 9E+09]];
CONST robtarget p_21_08:= [[508.4519, 324.4673, 156.9479], [0.01002673, 0.9998876, -0.01104007, 0.001536116], [-1.0, 1.0, -2.0, 4.0], [164.9373, 9E+09, 9E+09, 9E+09, 9E+09, 9E+09]];
CONST robtarget p_20_08:= [[508.6261, 294.1487, 156.6453], [0.01903523, 0.9995958, -0.02109499, 0.0009191603], [-1.0, 1.0, -2.0, 4.0], [165.5006, 9E+09, 9E+09, 9E+09, 9E+09, 9E+09]];
CONST robtarget p_19_08:= [[502.7166, 262.5982, 155.9055], [0.01326779, 0.9992347, -0.02870587, 0.0230208], [-1.0, 1.0, -2.0, 4.0], [166.9161, 9E+09, 9E+09, 9E+09, 9E+09, 9E+09]];
CONST robtarget p_18_08:= [[507.5591, 229.7197, 158.2919], [0.01189696, 0.9994148, -0.03175623, 0.004477729], [-1.0, 1.0, -2.0, 4.0], [160.6046, 9E+09, 9E+09, 9E+09, 9E+09, 9E+09]];
# Workspace V
CONST robtarget p_10_04V:= [[383.8528, -30.58465, 159.9688], [0.01166277, -0.01129943, -0.9998667, -0.001669109], [-1.0, 2.0, -1.0, 4.0], [172.7286, 9E+09, 9E+09, 9E+09, 9E+09, 9E+09]];
CONST robtarget p_10_05V:= [[415.2128, -29.88459, 158.7262], [0.009150583, -0.01474584, -0.9998396, 0.004427125], [-1.0, 2.0, -1.0, 4.0], [169.5785, 9E+09, 9E+09, 9E+09, 9E+09, 9E+09]];
CONST robtarget p_10_06V:= [[448.9847, -26.26911, 158.2157], [0.01717679, 0.004100381, -0.9997195, 0.01578197], [-1.0, 1.0, -1.0, 4.0], [165.9561, 9E+09, 9E+09, 9E+09, 9E+09, 9E+09]];
CONST robtarget p_10_07V:= [[479.5407, -21.58019, 157.9415], [0.0108825, 0.005382211, -0.9995094, 0.02887083], [-1.0, 1.0, -1.0, 4.0], [162.7305, 9E+09, 9E+09, 9E+09, 9E+09, 9E+09]];
CONST robtarget p_11_04V:= [[380.971, 4.719327, 158.7896], [0.000533454, 0.0006864495, 0.9999824, -0.005873946], [-1.0, 2.0, -1.0, 4.0], [172.4502, 9E+09, 9E+09, 9E+09, 9E+09, 9E+09]];
CONST robtarget p_11_05V:= [[413.9991, 1.630033, 157.1968], [0.004096486, -0.03180195, -0.9994739, -0.004884698], [-1.0, 2.0, -1.0, 4.0], [169.3442, 9E+09, 9E+09, 9E+09, 9E+09, 9E+09]];
CONST robtarget p_11_06V:= [[447.2307, 5.245576, 157.2109], [0.01185379, 0.003501026, -0.9998499, 0.01214266], [-1.0, 1.0, -1.0, 4.0], [165.911, 9E+09, 9E+09, 9E+09, 9E+09, 9E+09]];
CONST robtarget p_11_07V:= [[475.3682, 5.617838, 157.2716], [0.00607763, 0.003753084, 0.999925, -0.009951499], [-1.0, 2.0, -1.0, 4.0], [163.1862, 9E+09, 9E+09, 9E+09, 9E+09, 9E+09]];
CONST robtarget p_12_04V:= [[380.2187, 36.33927, 155.9738], [0.003182627, 0.0218472, 0.9997519, -0.002934044], [-1.0, 2.0, -1.0, 4.0], [172.3141, 9E+09, 9E+09, 9E+09, 9E+09, 9E+09]];
CONST robtarget p_12_05V:= [[412.5168, 40.01832, 160.16], [0.001521489, 0.01130327, 0.9997943, -0.01677124], [-1.0, 2.0, -1.0, 4.0], [168.9895, 9E+09, 9E+09, 9E+09, 9E+09, 9E+09]];
CONST robtarget p_12_06V:= [[444.3099, 40.50444, 157.2467], [0.001925782, 0.01073152, 0.9996997, -0.02194919], [-1.0, 1.0, -1.0, 4.0], [166.2284, 9E+09, 9E+09, 9E+09, 9E+09, 9E+09]];
CONST robtarget p_12_07V:= [[473.3717, 37.62224, 157.1687], [0.01151428, 0.006715164, 0.9998087, -0.01431606], [-1.0, 1.0, -1.0, 4.0], [163.3883, 9E+09, 9E+09, 9E+09, 9E+09, 9E+09]];
CONST robtarget p_13_04V:= [[382.7749, 69.05318, 157.4197], [0.008330863, -0.01147614, -0.9998704, 0.007625282], [-1.0, 2.0, -1.0, 4.0], [171.6334, 9E+09, 9E+09, 9E+09, 9E+09, 9E+09]];
CONST robtarget p_13_05V:= [[409.8453, 68.61034, 156.1144], [0.01153592, -0.004902727, 0.9998866, -0.008351473], [-1.0, 2.0, -1.0, 4.0], [169.6164, 9E+09, 9E+09, 9E+09, 9E+09, 9E+09]];
CONST robtarget p_13_06V:= [[447.0593, 65.38776, 158.5105], [0.007972522, -0.01545818, -0.999843, -0.003378092], [-1.0, 1.0, -1.0, 4.0], [165.7624, 9E+09, 9E+09, 9E+09, 9E+09, 9E+09]];
CONST robtarget p_13_07V:= [[473.1827, 68.4464, 158.0553], [0.01429572, 0.01468944, 0.9997748, -0.005502834], [-1.0, 1.0, -1.0, 4.0], [163.4656, 9E+09, 9E+09, 9E+09, 9E+09, 9E+09]];
# Workspace H
CONST robtarget p_10_04H:= [[380.1003, -27.53636, 157.6923], [0.008391932, 0.6814974, 0.7317694, -0.002101742], [-1.0, 2.0, 0.0, 4.0], [173.5016, 9E+09, 9E+09, 9E+09, 9E+09, 9E+09]];
CONST robtarget p_10_05H:= [[414.8503, -31.96103, 156.9289], [0.01278368, -0.722552, -0.6911982, -0.0005574376], [-1.0, 2.0, 0.0, 4.0], [169.8637, 9E+09, 9E+09, 9E+09, 9E+09, 9E+09]];
CONST robtarget p_10_06H:= [[445.0817, -33.29288, 157.8635], [0.01383581, -0.711696, -0.7023307, -0.005380604], [-1.0, 2.0, 0.0, 4.0], [166.6423, 9E+09, 9E+09, 9E+09, 9E+09, 9E+09]];
CONST robtarget p_10_07H:= [[478.7821, -24.93414, 157.2881], [0.01059352, 0.7053505, 0.7086368, -0.01422635], [-1.0, 1.0, 0.0, 4.0], [163.0629, 9E+09, 9E+09, 9E+09, 9E+09, 9E+09]];
CONST robtarget p_11_04H:= [[380.7832, 0.6875357, 158.3118], [0.002489049, -0.7123634, -0.7017715, -0.006997764], [-1.0, 2.0, 0.0, 4.0], [172.6453, 9E+09, 9E+09, 9E+09, 9E+09, 9E+09]];
CONST robtarget p_11_05H:= [[413.9065, 0.9728703, 158.4552], [0.006062254, -0.7119728, -0.7021781, -0.001978718], [-1.0, 2.0, 0.0, 4.0], [169.252, 9E+09, 9E+09, 9E+09, 9E+09, 9E+09]];
CONST robtarget p_11_06H:= [[444.0733, 4.733394, 159.1955], [0.0128239, 0.7366013, 0.6762056, 0.0002860416], [-1.0, 2.0, 0.0, 4.0], [166.3222, 9E+09, 9E+09, 9E+09, 9E+09, 9E+09]];
CONST robtarget p_11_07H:= [[477.2039, 5.116708, 157.662], [0.007224126, 0.7129828, 0.701111, -0.006828623], [-1.0, 1.0, 0.0, 4.0], [162.8813, 9E+09, 9E+09, 9E+09, 9E+09, 9E+09]];
CONST robtarget p_12_04H:= [[380.916, 29.83876, 158.8369], [0.008005251, -0.7080094, -0.7060122, -0.01433284], [-1.0, 2.0, 0.0, 4.0], [172.0738, 9E+09, 9E+09, 9E+09, 9E+09, 9E+09]];
CONST robtarget p_12_05H:= [[412.7371, 37.62194, 158.3287], [0.0077285, 0.70462, 0.7094761, -0.009726758], [-1.0, 2.0, 0.0, 4.0], [169.1282, 9E+09, 9E+09, 9E+09, 9E+09, 9E+09]];
CONST robtarget p_12_06H:= [[446.7136, 36.30033, 160.1002], [0.001248704, -0.6908786, -0.722888, 0.01086626], [-1.0, 1.0, 0.0, 4.0], [165.6064, 9E+09, 9E+09, 9E+09, 9E+09, 9E+09]];
CONST robtarget p_12_07H:= [[479.5356, 32.9103, 158.3791], [0.01272356, -0.6971756, -0.7167623, 0.006008971], [-1.0, 1.0, 0.0, 4.0], [162.3141, 9E+09, 9E+09, 9E+09, 9E+09, 9E+09]];
CONST robtarget p_13_04H:= [[380.3763, 67.00204, 155.9234], [0.003164608, 0.7132529, 0.7008982, -0.001380088], [-1.0, 2.0, 0.0, 4.0], [172.0702, 9E+09, 9E+09, 9E+09, 9E+09, 9E+09]];
CONST robtarget p_13_05H:= [[413.4465, 73.44936, 155.6068], [0.0201885, 0.7137734, 0.6998362, -0.01868784], [-1.0, 1.0, 0.0, 4.0], [169.2748, 9E+09, 9E+09, 9E+09, 9E+09, 9E+09]];
CONST robtarget p_13_06H:= [[441.9888, 66.34655, 156.3506], [0.009444566, 0.7004185, 0.7136095, 0.009287692], [-1.0, 2.0, 0.0, 4.0], [166.7028, 9E+09, 9E+09, 9E+09, 9E+09, 9E+09]];
CONST robtarget p_13_07H:= [[476.0502, 74.20019, 157.5679], [0.02633675, 0.7065055, 0.7070022, -0.01744157], [-1.0, 1.0, 0.0, 4.0], [163.1825, 9E+09, 9E+09, 9E+09, 9E+09, 9E+09]];
# Swap V
CONST robtarget p_07_06H:= [[445.2941, -120.8299, 157.5746], [0.009709388, 0.6913207, -0.7222748, 0.01733775], [-2.0, -1.0, 0.0, 5.0], [-146.5888, 9E+09, 9E+09, 9E+09, 9E+09, 9E+09]];
CONST robtarget p_07_07H:= [[479.6177, -118.5513, 158.5893], [0.02509183, 0.7067212, -0.7069234, 0.01322039], [-2.0, -1.0, 0.0, 5.0], [-148.4678, 9E+09, 9E+09, 9E+09, 9E+09, 9E+09]];
#
CONST robtarget appoint := [[390.1832, 421.7, 550.0425], [0.004916467, 0.7328104, 0.6796039, 0.0332149], [0.0, 1.0, 1.0, 4.0], [-162.8405, 9E+09, 9E+09, 9E+09, 9E+09, 9E+09]];
CONST robtarget LRef := [[-12.48262, 188.8462, 195.1932], [0.06165144, 0.8419135, -0.1228757, 0.5218068], [0.0, 0.0, 0.0, 4.0], [101.7427,9E+09,9E+09,9E+09,9E+09,9E+09]];